svg/u1f9d2_1f3fd.svg

<svg viewBox="0 0 128 128" xmlns="http://www.w3.org/2000/svg">
  <g id="hairGroup_2_">
    <path id="hair_4_" d="M28,15c-11.23,4.24-16,1-16,1c0,11,5,11,5,11S4,37.89,4,56 c0,21,10.49,28.22,10.49,28.22c0.54,0.56,1.41,1.83,1.41,1.83s0.3,1.53,0.29,2.31C16.12,93.84,16,100,22,106s13.19,6.22,16,7 c6.18,1.72,40.04,1.06,47.15,0.59c8.85-0.59,16.28-3.57,22.14-9.43c7.44-7.44,4.29-17.48,4.69-18.57 c0.4-1.1,13.12-15.62,12.03-33.58c-2-33-26-32-26-32S92,4,68,4C40,4,31.93,13.52,28,15z" fill="#543930"/>
    <g id="hairHighlights_2_">
      <radialGradient id="SVGID_1_" cx="628.717" cy="33.9951" gradientTransform="matrix(-0.8776 0.4793 -0.3113 -0.57 643.6991 -187.9951)" gradientUnits="userSpaceOnUse" r="33.7217">
        <stop offset="0.7275" stop-color="#6D4C41" stop-opacity="0"/>
        <stop offset="1" stop-color="#6D4C41"/>
      </radialGradient>
      <path d="M64.03,114.11c11.02,0.06,21.72,0.25,25.1-0.68c2.82-0.78,11.05-2.42,17.84-8.95 c5.12-4.93,6.23-11.84,4.57-17.96C111.36,85.84,64.03,114.11,64.03,114.11z" fill="url(#SVGID_1_)"/>
      <radialGradient id="SVGID_2_" cx="46.7548" cy="34.3691" gradientTransform="matrix(0.8776 0.4793 0.3113 -0.57 -4.9738 90.8076)" gradientUnits="userSpaceOnUse" r="34.0045">
        <stop offset="0.7275" stop-color="#6D4C41" stop-opacity="0"/>
        <stop offset="1" stop-color="#6D4C41"/>
      </radialGradient>
      <path d="M64.03,114.11C53.01,114.17,41.38,113.94,38,113c-2.82-0.78-10-1-16-7 s-5.88-12.16-5.81-17.64c0.01-0.69-0.22-1.95-0.28-2.25L16,86L64.03,114.11z" fill="url(#SVGID_2_)"/>
      <radialGradient id="SVGID_3_" cx="26.6195" cy="80.1389" gradientTransform="matrix(0.0746 -0.9972 -0.8311 -0.0622 91.2358 79.3913)" gradientUnits="userSpaceOnUse" r="34.3282">
        <stop offset="0.6985" stop-color="#6D4C41" stop-opacity="0"/>
        <stop offset="1" stop-color="#6D4C41"/>
      </radialGradient>
      <path d="M11.56,81.33c0,0,9.54-13.31,12.39-21.13c0.58-1.58,2.44-22.49,1.55-25.16 C23.84,30.02,21.76,23.41,17,27C7.99,35.55,4.49,45.1,4.07,53.75C3.33,68.96,8.89,78.19,11.56,81.33z" fill="url(#SVGID_3_)"/>
    </g>
  </g>
  <g id="ears">
    <path d="M101.77,67.91H91.6H36.51H26.34c-8.13,0-14.79,6.4-14.79,14.23s6.65,14.23,14.79,14.23h10.17H91.6 h10.17c8.13,0,14.79-6.4,14.79-14.23S109.9,67.91,101.77,67.91z" fill="#99674F"/>
  </g>
  <g id="head">
    <path d="M63.77,9.21L63.77,9.21L63.77,9.21c-23.86,0-45.96,25.07-45.96,61.14 c0,35.88,22.77,53.62,45.96,53.62s45.96-17.74,45.96-53.62C109.73,34.28,87.63,9.21,63.77,9.21z" fill="#BA8D68"/>
  </g>
  <path id="nose" d="M68.89,87.13c-0.14-0.06-0.28-0.09-0.42-0.11h-9.3c-0.14,0.02-0.28,0.05-0.42,0.11 c-0.84,0.34-1.31,1.21-0.91,2.14s2.25,3.54,5.98,3.54c3.73,0,5.58-2.61,5.98-3.54C70.2,88.34,69.73,87.47,68.89,87.13z" fill="#99674F"/>
  <g id="eyebrows">
    <path d="M32.51,68.42c0,0,0.17-0.25,0.5-0.67c0.09-0.1,0.16-0.21,0.28-0.34c0.14-0.14,0.31-0.28,0.48-0.44 c0.18-0.15,0.37-0.32,0.57-0.5c0.2-0.17,0.41-0.3,0.63-0.46c0.22-0.15,0.45-0.31,0.7-0.46c0.26-0.14,0.52-0.28,0.79-0.42 c0.27-0.15,0.56-0.28,0.87-0.39c0.3-0.12,0.61-0.24,0.93-0.35c0.65-0.18,1.32-0.38,2.02-0.47c0.7-0.14,1.42-0.15,2.14-0.18 c0.72,0.04,1.44,0.05,2.14,0.18c0.7,0.09,1.38,0.29,2.02,0.47c0.32,0.11,0.63,0.23,0.93,0.35c0.3,0.12,0.59,0.24,0.87,0.39 c0.27,0.14,0.54,0.29,0.79,0.42c0.25,0.15,0.48,0.31,0.7,0.46c0.22,0.16,0.43,0.29,0.62,0.45c0.18,0.16,0.36,0.32,0.52,0.46 c0.16,0.15,0.31,0.28,0.44,0.41c0.13,0.14,0.24,0.27,0.34,0.39c0.4,0.47,0.61,0.75,0.61,0.75c0.67,0.93,0.46,2.22-0.47,2.88 c-0.56,0.41-1.26,0.49-1.88,0.28l-0.38-0.13c0,0-0.25-0.09-0.65-0.26c-0.1-0.04-0.2-0.1-0.32-0.14c-0.13-0.04-0.25-0.09-0.39-0.14 c-0.27-0.11-0.58-0.22-0.92-0.32c-0.17-0.05-0.34-0.12-0.52-0.17c-0.19-0.04-0.37-0.09-0.57-0.14c-0.1-0.03-0.19-0.05-0.29-0.08 c-0.1-0.02-0.2-0.04-0.31-0.06c-0.21-0.03-0.41-0.09-0.62-0.13c-0.43-0.05-0.86-0.14-1.31-0.16c-0.45-0.06-0.9-0.04-1.36-0.07 c-0.46,0.03-0.91,0.01-1.36,0.07c-0.45,0.02-0.88,0.11-1.31,0.16c-0.21,0.04-0.41,0.1-0.62,0.13c-0.1,0.02-0.21,0.04-0.31,0.06 c-0.1,0.03-0.19,0.05-0.29,0.08c-0.19,0.05-0.38,0.1-0.57,0.14c-0.18,0.05-0.35,0.12-0.52,0.17c-0.17,0.05-0.33,0.1-0.48,0.15 c-0.13,0.05-0.26,0.09-0.38,0.14c-0.12,0.04-0.24,0.08-0.36,0.11c-0.13,0.05-0.27,0.13-0.38,0.19c-0.47,0.24-0.75,0.36-0.75,0.36 c-1.08,0.45-2.33-0.06-2.78-1.15C32.02,69.75,32.13,68.99,32.51,68.42z" fill="#613E31"/>
    <path d="M92.55,71.58c0,0-0.28-0.12-0.75-0.36c-0.11-0.06-0.25-0.14-0.38-0.19 c-0.12-0.03-0.23-0.07-0.36-0.11c-0.12-0.04-0.25-0.09-0.38-0.14c-0.15-0.05-0.32-0.1-0.48-0.15c-0.17-0.05-0.34-0.12-0.52-0.17 c-0.18-0.05-0.37-0.1-0.57-0.14c-0.1-0.03-0.19-0.05-0.29-0.08c-0.1-0.02-0.2-0.04-0.31-0.06c-0.21-0.03-0.41-0.09-0.62-0.13 c-0.43-0.05-0.86-0.14-1.31-0.16c-0.45-0.06-0.9-0.04-1.36-0.07c-0.46,0.03-0.91,0.01-1.36,0.07c-0.45,0.02-0.88,0.11-1.31,0.16 c-0.21,0.04-0.41,0.1-0.62,0.13c-0.1,0.02-0.21,0.04-0.31,0.06c-0.1,0.03-0.19,0.05-0.29,0.08c-0.19,0.05-0.38,0.1-0.57,0.14 c-0.18,0.05-0.35,0.12-0.52,0.17c-0.34,0.1-0.65,0.21-0.92,0.32c-0.14,0.05-0.26,0.11-0.39,0.14c-0.12,0.05-0.22,0.1-0.32,0.14 c-0.39,0.18-0.64,0.26-0.64,0.26l-0.37,0.13c-1.08,0.38-2.25-0.19-2.63-1.27c-0.23-0.66-0.1-1.36,0.27-1.89c0,0,0.2-0.28,0.61-0.75 c0.1-0.12,0.21-0.25,0.34-0.39c0.13-0.13,0.29-0.26,0.44-0.41c0.16-0.14,0.34-0.3,0.52-0.46c0.19-0.16,0.4-0.29,0.62-0.45 c0.22-0.15,0.45-0.31,0.7-0.46c0.26-0.14,0.52-0.28,0.79-0.42c0.27-0.15,0.56-0.28,0.86-0.39c0.3-0.12,0.61-0.24,0.93-0.35 c0.65-0.18,1.32-0.38,2.02-0.47c0.7-0.14,1.42-0.15,2.14-0.18c0.72,0.04,1.44,0.04,2.14,0.18c0.7,0.08,1.38,0.29,2.02,0.47 c0.32,0.11,0.63,0.23,0.93,0.35c0.3,0.12,0.59,0.24,0.86,0.39c0.27,0.14,0.54,0.29,0.79,0.42c0.25,0.15,0.48,0.31,0.7,0.46 c0.22,0.16,0.43,0.29,0.63,0.46c0.2,0.17,0.39,0.34,0.57,0.5c0.17,0.16,0.34,0.3,0.48,0.44c0.12,0.13,0.2,0.24,0.28,0.34 c0.33,0.41,0.5,0.67,0.5,0.67c0.66,0.97,0.41,2.29-0.56,2.95C93.95,71.79,93.18,71.84,92.55,71.58z" fill="#613E31"/>
  </g>
  <g id="eyes">
    <ellipse cx="41.96" cy="80.34" fill="#49362E" rx="6.48" ry="6.71"/>
    <ellipse cx="85.68" cy="80.34" fill="#49362E" rx="6.48" ry="6.71"/>
  </g>
  <path id="mouth" d="M75.01,97.97c-4.19,2.49-17.91,2.49-22.1,0c-2.4-1.43-4.86,0.76-3.86,2.94 c0.98,2.15,8.47,7.13,14.95,7.13s13.87-4.98,14.85-7.13C79.84,98.72,77.42,96.54,75.01,97.97z" fill="#5D4037"/>
  <g id="hairGroup_1_">
    <path id="hair" d="M64,7C44.19,7,28.92,18.32,21.7,36.48c-2.9,7.29-5.26,15.05-5.26,22.89 C16.44,73,19,85,19,85c7-9,5-18,5-18c9-12,35.82-21.64,36-22c-0.01,0.02-5.4,10.81-5.4,10.81c-0.68,1.35,0.48,2.97,1.95,2.65 C82,53,93.18,43.19,93.18,43.19S94,58,105,68c0,0,0,8,3,17c0,0,5-18,1.58-37.28c-2.25-12.66-9.52-24.83-20.04-32.67 C82.15,9.54,73.15,7,64,7z" fill="#543930"/>
    <g id="hairHighlights">
      <radialGradient id="SVGID_4_" cx="172.2214" cy="61.1276" gradientTransform="matrix(-0.9378 -0.3944 -0.2182 0.5285 236.4617 66.99)" gradientUnits="userSpaceOnUse" r="46.468">
        <stop offset="0.6985" stop-color="#6D4C41" stop-opacity="0"/>
        <stop offset="1" stop-color="#6D4C41"/>
      </radialGradient>
      <path d="M81.19,5.93c9.95,3.28,16.06,9.58,17.95,17.49c0.56,2.32,0.15,23.66-41.22-0.97 c-15.39-9.16-11.18-14.9-9.38-15.55C55.58,4.37,68.35,1.7,81.19,5.93z" fill="url(#SVGID_4_)"/>
      <radialGradient id="SVGID_5_" cx="161.2834" cy="92.1732" gradientTransform="matrix(0.5235 0.852 0.6321 -0.3884 -48.207 -37.2646)" gradientUnits="userSpaceOnUse" r="48.129">
        <stop offset="0.6985" stop-color="#6D4C41" stop-opacity="0"/>
        <stop offset="1" stop-color="#6D4C41"/>
      </radialGradient>
      <path d="M116.24,79.21c0,0,14.72-20.84,3.79-44.33C112.9,19.58,98.42,19.93,98,20 c0,0,1.57,3.84,1.01,6.77c-0.95,5-5.11,6.44-5.11,6.44C110.28,43.19,104.7,68.74,116.24,79.21z" fill="url(#SVGID_5_)"/>
      <radialGradient id="SVGID_6_" cx="183.6044" cy="211.3525" gradientTransform="matrix(0.9968 0.0796 0.0943 -1.182 -185.8959 247.3334)" gradientUnits="userSpaceOnUse" r="8.7425">
        <stop offset="0.58" stop-color="#6D4C41"/>
        <stop offset="1" stop-color="#6D4C41" stop-opacity="0"/>
      </radialGradient>
      <path d="M27.28,15.27c-10.55,3.77-15.23,0.81-15.26,0.73c-0.32,1.23,0.37,8.7,6.9,6.37 C21.73,21.35,27.25,15.62,27.28,15.27z" fill="url(#SVGID_6_)"/>
      <radialGradient id="SVGID_7_" cx="340.3055" cy="96.0319" gradientTransform="matrix(0.6211 -0.7838 -1.2436 -0.9854 -70.4253 384.055)" gradientUnits="userSpaceOnUse" r="7.2204">
        <stop offset="0.7016" stop-color="#6D4C41" stop-opacity="0"/>
        <stop offset="1" stop-color="#6D4C41"/>
      </radialGradient>
      <path d="M11.98,15.99c0,0.01-0.01,0.03-0.01,0.06c0,0,0,0,0,0C11.94,17.22,11.96,26.18,17,27 l7.61-3.35c-9.49-0.19-12.62-7.69-12.62-7.69S11.98,15.98,11.98,15.99z" fill="url(#SVGID_7_)"/>
    </g>
  </g>
</svg>

<svg viewBox="0 0 128 128" xmlns="http://www.w3.org/2000/svg">
  <defs>
    <radialGradient id="SVGID_1_" cx="-26.359085" cy="-187.027475" gradientTransform="matrix(-0.8776 0.4793 -0.3113 -0.57 0 0)" gradientUnits="userSpaceOnUse" r="33.7217">
      <stop offset="0.7275" stop-color="#6D4C41" stop-opacity="0"/>
      <stop offset="1" stop-color="#6D4C41"/>
    </radialGradient>
    <radialGradient id="SVGID_2_" cx="85.91687" cy="-92.011988" gradientTransform="matrix(0.8776 0.4793 0.3113 -0.57 0 0)" gradientUnits="userSpaceOnUse" r="34.0045">
      <stop offset="0.7275" stop-color="#6D4C41" stop-opacity="0"/>
      <stop offset="1" stop-color="#6D4C41"/>
    </radialGradient>
    <radialGradient id="SVGID_3_" cx="-45.74227" cy="-36.133496" gradientTransform="matrix(0.0746 -0.9972 -0.8311 -0.0622 0 0)" gradientUnits="userSpaceOnUse" r="34.3282">
      <stop offset="0.6985" stop-color="#6D4C41" stop-opacity="0"/>
      <stop offset="1" stop-color="#6D4C41"/>
    </radialGradient>
    <radialGradient id="SVGID_4_" cx="-67.748919" cy="8.801594" gradientTransform="matrix(-0.9378 -0.3944 -0.2182 0.5285 0 0)" gradientUnits="userSpaceOnUse" r="46.468">
      <stop offset="0.6985" stop-color="#6D4C41" stop-opacity="0"/>
      <stop offset="1" stop-color="#6D4C41"/>
    </radialGradient>
    <radialGradient id="SVGID_5_" cx="104.294741" cy="63.105905" gradientTransform="matrix(0.5235 0.852 0.6321 -0.3884 0 0)" gradientUnits="userSpaceOnUse" r="48.129">
      <stop offset="0.6985" stop-color="#6D4C41" stop-opacity="0"/>
      <stop offset="1" stop-color="#6D4C41"/>
    </radialGradient>
    <radialGradient id="SVGID_6_" cx="17.96262" cy="-9.05231" gradientTransform="matrix(0.9968 0.0796 0.0943 -1.182 0 0)" gradientUnits="userSpaceOnUse" r="8.7425">
      <stop offset="0.58" stop-color="#6D4C41"/>
      <stop offset="1" stop-color="#6D4C41" stop-opacity="0"/>
    </radialGradient>
    <radialGradient id="SVGID_7_" cx="-4.425872" cy="-19.509556" gradientTransform="matrix(0.6211 -0.7838 -1.2436 -0.9854 0 0)" gradientUnits="userSpaceOnUse" r="7.2204">
      <stop offset="0.7016" stop-color="#6D4C41" stop-opacity="0"/>
      <stop offset="1" stop-color="#6D4C41"/>
    </radialGradient>
  </defs>
  <path id="hair_4_" d="M28,15 C16.77,19.24 12,16 12,16 C12,27 17,27 17,27 C17,27 4,37.89 4,56 C4,77 14.49,84.22 14.49,84.22 C15.03,84.78 15.9,86.05 15.9,86.05 C15.9,86.05 16.2,87.58 16.19,88.36 C16.12,93.84 16,100 22,106 C28,112 35.19,112.22 38,113 C44.18,114.72 78.04,114.06 85.15,113.59 C94,113 101.43,110.02 107.29,104.16 C114.73,96.72 111.58,86.68 111.98,85.59 C112.38,84.49 125.1,69.97 124.01,52.01 C122.01,19.01 98.01,20.01 98.01,20.01 C98.01,20.01 92,4 68,4 C40,4 31.93,13.52 28,15 Z" fill="#543930"/>
  <path d="M64.03,114.11 C75.05,114.17 85.75,114.36 89.13,113.43 C91.95,112.65 100.18,111.01 106.97,104.48 C112.09,99.55 113.2,92.64 111.54,86.52 C111.36,85.84 64.03,114.11 64.03,114.11 Z" fill="url(#SVGID_1_)"/>
  <path d="M64.03,114.11 C53.01,114.17 41.38,113.94 38,113 C35.18,112.22 28,112 22,106 C16,100 16.12,93.84 16.19,88.36 C16.2,87.67 15.97,86.41 15.91,86.11 L16,86 L64.03,114.11 Z" fill="url(#SVGID_2_)"/>
  <path d="M11.56,81.33 C11.56,81.33 21.1,68.02 23.95,60.2 C24.53,58.62 26.39,37.71 25.5,35.04 C23.84,30.02 21.76,23.41 17,27 C7.99,35.55 4.49,45.1 4.07,53.75 C3.33,68.96 8.89,78.19 11.56,81.33 Z" fill="url(#SVGID_3_)"/>
  <path d="M101.77,67.91 L91.6,67.91 L36.51,67.91 L26.34,67.91 C18.21,67.91 11.55,74.31 11.55,82.14 C11.55,89.97 18.2,96.37 26.34,96.37 L36.51,96.37 L91.6,96.37 L101.77,96.37 C109.9,96.37 116.56,89.97 116.56,82.14 C116.56,74.31 109.9,67.91 101.77,67.91 Z" fill="#99674F"/>
  <path d="M63.77,9.21 L63.77,9.21 L63.77,9.21 C39.91,9.21 17.81,34.28 17.81,70.35 C17.81,106.23 40.58,123.97 63.77,123.97 C86.96,123.97 109.73,106.23 109.73,70.35 C109.73,34.28 87.63,9.21 63.77,9.21 Z" fill="#BA8D68"/>
  <path id="nose" d="M68.89,87.13 C68.75,87.07 68.61,87.04 68.47,87.02 L59.17,87.02 C59.03,87.04 58.89,87.07 58.75,87.13 C57.91,87.47 57.44,88.34 57.84,89.27 C58.24,90.2 60.09,92.81 63.82,92.81 C67.55,92.81 69.4,90.2 69.8,89.27 C70.2,88.34 69.73,87.47 68.89,87.13 Z" fill="#99674F"/>
  <path d="M32.51,68.42 C32.51,68.42 32.68,68.17 33.01,67.75 C33.1,67.65 33.17,67.54 33.29,67.41 C33.43,67.27 33.6,67.13 33.77,66.97 C33.95,66.82 34.14,66.65 34.34,66.47 C34.54,66.3 34.75,66.17 34.97,66.01 C35.19,65.86 35.42,65.7 35.67,65.55 C35.93,65.41 36.19,65.27 36.46,65.13 C36.73,64.98 37.02,64.85 37.33,64.74 C37.63,64.62 37.94,64.5 38.26,64.39 C38.91,64.21 39.58,64.01 40.28,63.92 C40.98,63.78 41.7,63.77 42.42,63.74 C43.14,63.78 43.86,63.79 44.56,63.92 C45.26,64.01 45.94,64.21 46.58,64.39 C46.9,64.5 47.21,64.62 47.51,64.74 C47.81,64.86 48.1,64.98 48.38,65.13 C48.65,65.27 48.92,65.42 49.17,65.55 C49.42,65.7 49.65,65.86 49.87,66.01 C50.09,66.17 50.3,66.3 50.49,66.46 C50.67,66.62 50.85,66.78 51.01,66.92 C51.17,67.07 51.32,67.2 51.45,67.33 C51.58,67.47 51.69,67.6 51.79,67.72 C52.19,68.19 52.4,68.47 52.4,68.47 C53.07,69.4 52.86,70.69 51.93,71.35 C51.37,71.76 50.67,71.84 50.05,71.63 L49.67,71.5 C49.67,71.5 49.42,71.41 49.02,71.24 C48.92,71.2 48.82,71.14 48.7,71.1 C48.57,71.06 48.45,71.01 48.31,70.96 C48.04,70.85 47.73,70.74 47.39,70.64 C47.22,70.59 47.05,70.52 46.87,70.47 C46.68,70.43 46.5,70.38 46.3,70.33 C46.2,70.3 46.11,70.28 46.01,70.25 C45.91,70.23 45.81,70.21 45.7,70.19 C45.49,70.16 45.29,70.1 45.08,70.06 C44.65,70.01 44.22,69.92 43.77,69.9 C43.32,69.84 42.87,69.86 42.41,69.83 C41.95,69.86 41.5,69.84 41.05,69.9 C40.6,69.92 40.17,70.01 39.74,70.06 C39.53,70.1 39.33,70.16 39.12,70.19 C39.02,70.21 38.91,70.23 38.81,70.25 C38.71,70.28 38.62,70.3 38.52,70.33 C38.33,70.38 38.14,70.43 37.95,70.47 C37.77,70.52 37.6,70.59 37.43,70.64 C37.26,70.69 37.1,70.74 36.95,70.79 C36.82,70.84 36.69,70.88 36.57,70.93 C36.45,70.97 36.33,71.01 36.21,71.04 C36.08,71.09 35.94,71.17 35.83,71.23 C35.36,71.47 35.08,71.59 35.08,71.59 C34,72.04 32.75,71.53 32.3,70.44 C32.02,69.75 32.13,68.99 32.51,68.42 Z" fill="#613E31"/>
  <path d="M92.55,71.58 C92.55,71.58 92.27,71.46 91.8,71.22 C91.69,71.16 91.55,71.08 91.42,71.03 C91.3,71 91.19,70.96 91.06,70.92 C90.94,70.88 90.81,70.83 90.68,70.78 C90.53,70.73 90.36,70.68 90.2,70.63 C90.03,70.58 89.86,70.51 89.68,70.46 C89.5,70.41 89.31,70.36 89.11,70.32 C89.01,70.29 88.92,70.27 88.82,70.24 C88.72,70.22 88.62,70.2 88.51,70.18 C88.3,70.15 88.1,70.09 87.89,70.05 C87.46,70 87.03,69.91 86.58,69.89 C86.13,69.83 85.68,69.85 85.22,69.82 C84.76,69.85 84.31,69.83 83.86,69.89 C83.41,69.91 82.98,70 82.55,70.05 C82.34,70.09 82.14,70.15 81.93,70.18 C81.83,70.2 81.72,70.22 81.62,70.24 C81.52,70.27 81.43,70.29 81.33,70.32 C81.14,70.37 80.95,70.42 80.76,70.46 C80.58,70.51 80.41,70.58 80.24,70.63 C79.9,70.73 79.59,70.84 79.32,70.95 C79.18,71 79.06,71.06 78.93,71.09 C78.81,71.14 78.71,71.19 78.61,71.23 C78.22,71.41 77.97,71.49 77.97,71.49 L77.6,71.62 C76.52,72 75.35,71.43 74.97,70.35 C74.74,69.69 74.87,68.99 75.24,68.46 C75.24,68.46 75.44,68.18 75.85,67.71 C75.95,67.59 76.06,67.46 76.19,67.32 C76.32,67.19 76.48,67.06 76.63,66.91 C76.79,66.77 76.97,66.61 77.15,66.45 C77.34,66.29 77.55,66.16 77.77,66 C77.99,65.85 78.22,65.69 78.47,65.54 C78.73,65.4 78.99,65.26 79.26,65.12 C79.53,64.97 79.82,64.84 80.12,64.73 C80.42,64.61 80.73,64.49 81.05,64.38 C81.7,64.2 82.37,64 83.07,63.91 C83.77,63.77 84.49,63.76 85.21,63.73 C85.93,63.77 86.65,63.77 87.35,63.91 C88.05,63.99 88.73,64.2 89.37,64.38 C89.69,64.49 90,64.61 90.3,64.73 C90.6,64.85 90.89,64.97 91.16,65.12 C91.43,65.26 91.7,65.41 91.95,65.54 C92.2,65.69 92.43,65.85 92.65,66 C92.87,66.16 93.08,66.29 93.28,66.46 C93.48,66.63 93.67,66.8 93.85,66.96 C94.02,67.12 94.19,67.26 94.33,67.4 C94.45,67.53 94.53,67.64 94.61,67.74 C94.94,68.15 95.11,68.41 95.11,68.41 C95.77,69.38 95.52,70.7 94.55,71.36 C93.95,71.79 93.18,71.84 92.55,71.58 Z" fill="#613E31"/>
  <path d="M48.44,80.34 A6.48 6.71 0 1 1 35.48,80.34 A6.48 6.71 0 1 1 48.44,80.34 Z" fill="#49362E"/>
  <path d="M92.16,80.34 A6.48 6.71 0 1 1 79.2,80.34 A6.48 6.71 0 1 1 92.16,80.34 Z" fill="#49362E"/>
  <path id="mouth" d="M75.01,97.97 C70.82,100.46 57.1,100.46 52.91,97.97 C50.51,96.54 48.05,98.73 49.05,100.91 C50.03,103.06 57.52,108.04 64,108.04 C70.48,108.04 77.87,103.06 78.85,100.91 C79.84,98.72 77.42,96.54 75.01,97.97 Z" fill="#5D4037"/>
  <path id="hair" d="M64,7 C44.19,7 28.92,18.32 21.7,36.48 C18.8,43.77 16.44,51.53 16.44,59.37 C16.44,73 19,85 19,85 C26,76 24,67 24,67 C33,55 59.82,45.36 60,45 C59.99,45.02 54.6,55.81 54.6,55.81 C53.92,57.16 55.08,58.78 56.55,58.46 C82,53 93.18,43.19 93.18,43.19 C93.18,43.19 94,58 105,68 C105,68 105,76 108,85 C108,85 113,67 109.58,47.72 C107.33,35.06 100.06,22.89 89.54,15.05 C82.15,9.54 73.15,7 64,7 Z" fill="#543930"/>
  <path d="M81.19,5.93 C91.14,9.21 97.25,15.51 99.14,23.42 C99.7,25.74 99.29,47.08 57.92,22.45 C42.53,13.29 46.74,7.55 48.54,6.9 C55.58,4.37 68.35,1.7 81.19,5.93 Z" fill="url(#SVGID_4_)"/>
  <path d="M116.24,79.21 C116.24,79.21 130.96,58.37 120.03,34.88 C112.9,19.58 98.42,19.93 98,20 C98,20 99.57,23.84 99.01,26.77 C98.06,31.77 93.9,33.21 93.9,33.21 C110.28,43.19 104.7,68.74 116.24,79.21 Z" fill="url(#SVGID_5_)"/>
  <path d="M27.28,15.27 C16.73,19.04 12.05,16.08 12.02,16 C11.7,17.23 12.39,24.7 18.92,22.37 C21.73,21.35 27.25,15.62 27.28,15.27 Z" fill="url(#SVGID_6_)"/>
  <path d="M11.98,15.99 C11.98,16 11.97,16.02 11.97,16.05 C11.97,16.05 11.97,16.05 11.97,16.05 C11.94,17.22 11.96,26.18 17,27 L24.61,23.65 C15.12,23.46 11.99,15.96 11.99,15.96 C11.99,15.96 11.98,15.98 11.98,15.99 Z" fill="url(#SVGID_7_)"/>
</svg>
